X: 942
T: Easter Sunday.
B:O'Neill's 942
N:"collected by Delaney."
Z:Transcribed by Tom Keays (htkeays@mailbox.syr.edu)
Z:abc 1.6
M:6/8
R:Jig
L:1/8
K:D
(A/F/) | DED DdB | AGF G2 A | BGG AFD | EFE E2 (A/F/) |
DED d2 B | AGF G2 A | BGB AFA | DED D2 :|
|| (d/e/) | fdB ABd | efg fed | fdB ABd | fee e2 (d/e/) |
fdB ABd | e(f/e/d) eag | fdB Ade | fdd d2 :|


